X: 10394
T: AP SHENKIN
Q: "Sprightly."
%R: jig
B: W. Hamilton "Universal Tune-Book" Vol. 1 Glasgow 1844 p.39 #4
S: http://imslp.org/wiki/Hamilton's_Universal_Tune-Book_(Various)
Z: 2016 John Chambers <jc:trillian.mit.edu>
M: 6/8
L: 1/8
K: G
% - - - - - - - - - - - - - - - - - - - - - - - - -
(d/c/) |\
B2B Bgf | e2e efg | ded dcB | BAA A2 (d/c/) |\
B2B Bgf | e2e efg | ded cBA | G2B G2 :|\
|: (g/a/) |\
b2g a2f | gfe dcB | cde dgB | BAA A2 (g/a/) |
b2g a2f | (g>f).e (a>g).f | (b>a).g fge | dgf edc |\
B2B Bgf | e2e efg | ded dcB | BAA Adc |\
B2B Bgf | e2e efg | ded cBA | AGG G2 |]
% - - - - - - - - - - - - - - - - - - - - - - - - -

%%sep 1 1 500
%%sep 1 1 500

